svg/icon/blz.svg

<svg height="32" viewBox="0 0 32 32" width="32" xmlns="http://www.w3.org/2000/svg" xmlns:xlink="http://www.w3.org/1999/xlink"><defs><linearGradient id="a" x1="50%" x2="50%" y1="0%" y2="100%"><stop offset="0" stop-color="#fff" stop-opacity=".5"/><stop offset="1" stop-opacity=".5"/></linearGradient><circle id="b" cx="16" cy="15" r="15"/><filter id="c" height="111.7%" width="111.7%" x="-5.8%" y="-4.2%"><feOffset dy=".5" in="SourceAlpha" result="shadowOffsetOuter1"/><feGaussianBlur in="shadowOffsetOuter1" result="shadowBlurOuter1" stdDeviation=".5"/><feComposite in="shadowBlurOuter1" in2="SourceAlpha" operator="out" result="shadowBlurOuter1"/><feColorMatrix in="shadowBlurOuter1" values="0 0 0 0 0   0 0 0 0 0   0 0 0 0 0  0 0 0 0.199473505 0"/></filter><path id="d" d="m11.6328877 19.3355344c.6621567.6753293.6621567 1.76944 0 2.4447693s-1.73614707.6765745-2.39981089.0027823c-.3200828-.3243258-.50004883-.7652596-.50004883-1.225167 0-.4599073.17996603-.9008411.50004883-1.2251669.66366382-.6737922 1.73765419-.6725471 2.39981089.0027823zm11.0630962-11.60890797c.634472.26771753 1.0481619.89843532 1.0481619 1.59804319 0 .69960788-.4136899 1.33032568-1.0481619 1.59804318s-1.3647737.1197107-1.8503579-.3750033c-.3188014-.3241561-.4979533-.76417698-.4979533-1.22303988s.1791519-.89888379.4979533-1.22303992c.4855842-.49471401 1.2158859-.6427208 1.8503579-.37500327zm-11.2856324 10.27545827 1.636923-1.6760965c.328495.8337745.9771622 1.4945935 1.7956044 1.8292423l-1.6410989 1.6718424zm9.6966811-6.1373207-1.6410989 1.6718424c-.1600566-.4116708-.4017181-.7852983-.7098901-1.0975454-.3085829-.3144098-.6764966-.5618686-1.0815384-.7274429l1.6410989-1.6718424zm-.6867227 7.9426891c.2627945-.6463579.881914-1.0677977 1.5686567-1.0677977.6867428 0 1.3058623.4214398 1.5686568 1.0677977.2627945.6463578.1175094 1.3903406-.3681073 1.8850216-.3181952.3247737-.7501246.5072817-1.2005495.5072817-.4504248 0-.8823542-.182508-1.2005494-.5072817-.4856167-.494681-.6309018-1.2386638-.3681073-1.8850216zm-11.3849668-11.29876183c.26279447-.64635786.88191399-1.06779765 1.5686568-1.06779765.6867427 0 1.3058622.42143979 1.5686567 1.06779765s.1175094 1.39034067-.3681073 1.88502163c-.3181952.3247737-.7501246.5072817-1.2005494.5072817-.4504249 0-.88235425-.182508-1.20054947-.5072817-.48561671-.49468096-.6309018-1.23866377-.36810733-1.88502163zm10.1449643 11.24563733-1.6452747-1.6675883c.8184421-.3346488 1.4671094-.9954679 1.7956043-1.8292423l1.6410989 1.6718424zm-5.8415604-9.80941822 1.6410989 1.67184242c-.4041005.163055-.7708575.4092437-1.0773626.7231888-.3086281.3143638-.5515363.6891697-.7140659 1.1017994l-1.6410989-1.6718424zm2.9418681-1.48211167c-.9386413 0-1.6995604-.77517379-1.6995604-1.73139912s.7609191-1.73139912 1.6995604-1.73139912c.4508534-.00033892.8833365.18196698 1.2021381.5067408.3188015.32477381.497755.7653589.4974223 1.22465832 0 .95622533-.7609191 1.73139912-1.6995604 1.73139912zm1.6995604 14.80580219c0 .9562253-.7609191 1.7313991-1.6995604 1.7313991s-1.6995604-.7751738-1.6995604-1.7313991.7609191-1.7313991 1.6995604-1.7313991c.4508534-.000339.8833365.1819669 1.2021381.5067408.3188015.3247738.497755.7653589.4974223 1.2246583zm-1.0823736-13.89968914v2.14404214c-.3537037-.0624119-.7153072-.0624119-1.0690109 0v-2.14404214zm0 9.21257474v2.1440422h-1.0690109v-2.1440422c.3537037.062412.7153072.062412 1.0690109 0zm5.3324482-3.3928099c-.2630597-.6469795-.1176525-1.3916851.3684183-1.8868618.4860709-.4951767 1.2170821-.6433078 1.8521643-.3753202.6350822.2679877 1.0491668.8993187 1.0491668 1.5996043.0003327.4592994-.1786207.8998845-.4974223 1.2246583-.3188015.3247738-.7512847.5070797-1.2021381.5067408-.687408 0-1.3071294-.4218419-1.570189-1.0688214zm-15.7302501-.368481c-.00007685-.9561699.76069511-1.7313842 1.69928203-1.7315409.93858691-.0001566 1.69960811.7748038 1.69983872 1.7309737.00033257.4593385-.1786076.8999672-.4973971 1.2248086-.31878951.3248413-.75127153.5072419-1.2021633.507016-.93858693-.0000001-1.6994835-.7750875-1.69956035-1.7312574zm15.0834941.5443769-2.1046153-.0017016c.0612642-.3603299.0612642-.7287075 0-1.0890373h2.1046153zm-8.6439558 0h-2.1046154v-1.0890373h2.1046154c-.0612643.3603298-.0612643.7287074 0 1.0890373zm3.2901318 2.0376908c-1.3307028 0-2.4094505-1.0989564-2.4094505-2.4545879s1.0787477-2.4545879 2.4094505-2.4545879c1.3305118.0004695 2.4089895 1.099151 2.4094505 2.4545879 0 1.3556315-1.0787478 2.4545879-2.4094505 2.4545879z"/><filter id="e" height="117.5%" width="118.4%" x="-9.2%" y="-6.2%"><feOffset dy=".5" in="SourceAlpha" result="shadowOffsetOuter1"/><feGaussianBlur in="shadowOffsetOuter1" result="shadowBlurOuter1" stdDeviation=".5"/><feColorMatrix in="shadowBlurOuter1" values="0 0 0 0 0   0 0 0 0 0   0 0 0 0 0  0 0 0 0.204257246 0"/></filter></defs><g fill="none" fill-rule="evenodd"><use fill="#000" filter="url(#c)" xlink:href="#b"/><use fill="#18578c" xlink:href="#b"/><use fill="url(#a)" xlink:href="#b"/><circle cx="16" cy="15" r="14.5" stroke="#000" stroke-opacity=".097"/><g fill-rule="nonzero"><use fill="#000" filter="url(#e)" xlink:href="#d"/><use fill="#fff" fill-rule="evenodd" xlink:href="#d"/></g></g></svg>

<svg xmlns="http://www.w3.org/2000/svg" xmlns:xlink="http://www.w3.org/1999/xlink" width="32" height="32" viewBox="0 0 32 32">
  <defs>
    <linearGradient id="blz-c" x1="50%" x2="50%" y1="0%" y2="100%">
      <stop offset="0%" stop-color="#FFF" stop-opacity=".5"/>
      <stop offset="100%" stop-opacity=".5"/>
    </linearGradient>
    <circle id="blz-b" cx="16" cy="15" r="15"/>
    <filter id="blz-a" width="111.7%" height="111.7%" x="-5.8%" y="-4.2%" filterUnits="objectBoundingBox">
      <feOffset dy=".5" in="SourceAlpha" result="shadowOffsetOuter1"/>
      <feGaussianBlur in="shadowOffsetOuter1" result="shadowBlurOuter1" stdDeviation=".5"/>
      <feComposite in="shadowBlurOuter1" in2="SourceAlpha" operator="out" result="shadowBlurOuter1"/>
      <feColorMatrix in="shadowBlurOuter1" values="0 0 0 0 0   0 0 0 0 0   0 0 0 0 0  0 0 0 0.199473505 0"/>
    </filter>
    <path id="blz-e" d="M11.6328877,19.3355344 C12.2950444,20.0108637 12.2950444,21.1049744 11.6328877,21.7803037 C10.970731,22.455633 9.89674063,22.4568782 9.23307681,21.783086 C8.91299401,21.4587602 8.73302798,21.0178264 8.73302798,20.557919 C8.73302798,20.0980117 8.91299401,19.6570779 9.23307681,19.3327521 C9.89674063,18.6589599 10.970731,18.660205 11.6328877,19.3355344 Z M22.6959839,7.72662643 C23.3304559,7.99434396 23.7441458,8.62506175 23.7441458,9.32466962 C23.7441458,10.0242775 23.3304559,10.6549953 22.6959839,10.9227128 C22.0615119,11.1904303 21.3312102,11.0424235 20.845626,10.5477095 C20.5268246,10.2235534 20.3476727,9.78353252 20.3476727,9.32466962 C20.3476727,8.86580672 20.5268246,8.42578583 20.845626,8.1016297 C21.3312102,7.60691569 22.0615119,7.4589089 22.6959839,7.72662643 Z M11.4103515,18.0020847 L13.0472745,16.3259882 C13.3757695,17.1597627 14.0244367,17.8205817 14.8428789,18.1552305 L13.20178,19.8270729 L11.4103515,18.0020847 Z M21.1070326,11.864764 L19.4659337,13.5366064 C19.3058771,13.1249356 19.0642156,12.7513081 18.7560436,12.439061 C18.4474607,12.1246512 18.079547,11.8771924 17.6745052,11.7116181 L19.3156041,10.0397757 L21.1070326,11.864764 Z M20.4203099,19.8074531 C20.6831044,19.1610952 21.3022239,18.7396554 21.9889666,18.7396554 C22.6757094,18.7396554 23.2948289,19.1610952 23.5576234,19.8074531 C23.8204179,20.4538109 23.6751328,21.1977937 23.1895161,21.6924747 C22.8713209,22.0172484 22.4393915,22.1997564 21.9889666,22.1997564 C21.5385418,22.1997564 21.1066124,22.0172484 20.7884172,21.6924747 C20.3028005,21.1977937 20.1575154,20.4538109 20.4203099,19.8074531 Z M9.0353431,8.50869127 C9.29813757,7.86233341 9.91725709,7.44089362 10.6039999,7.44089362 C11.2907426,7.44089362 11.9098621,7.86233341 12.1726566,8.50869127 C12.4354511,9.15504913 12.290166,9.89903194 11.8045493,10.3937129 C11.4863541,10.7184866 11.0544247,10.9009946 10.6039999,10.9009946 C10.153575,10.9009946 9.72164565,10.7184866 9.40345043,10.3937129 C8.91783372,9.89903194 8.77254863,9.15504913 9.0353431,8.50869127 Z M19.1803074,19.7543286 L17.5350327,18.0867403 C18.3534748,17.7520915 19.0021421,17.0912724 19.330637,16.257498 L20.9717359,17.9293404 L19.1803074,19.7543286 Z M13.338747,9.94491038 L14.9798459,11.6167528 C14.5757454,11.7798078 14.2089884,12.0259965 13.9024833,12.3399416 C13.5938552,12.6543054 13.350947,13.0291113 13.1884174,13.441741 L11.5473185,11.7698986 L13.338747,9.94491038 Z M16.2806151,8.46279871 C15.3419738,8.46279871 14.5810547,7.68762492 14.5810547,6.73139959 C14.5810547,5.77517426 15.3419738,5.00000047 16.2806151,5.00000047 C16.7314685,4.99966155 17.1639516,5.18196745 17.4827532,5.50674127 C17.8015547,5.83151508 17.9805082,6.27210017 17.9801755,6.73139959 C17.9801755,7.68762492 17.2192564,8.46279871 16.2806151,8.46279871 Z M17.9801755,23.2686009 C17.9801755,24.2248262 17.2192564,25 16.2806151,25 C15.3419738,25 14.5810547,24.2248262 14.5810547,23.2686009 C14.5810547,22.3123756 15.3419738,21.5372018 16.2806151,21.5372018 C16.7314685,21.5368628 17.1639516,21.7191687 17.4827532,22.0439426 C17.8015547,22.3687164 17.9805082,22.8093015 17.9801755,23.2686009 Z M16.8978019,9.36891176 L16.8978019,11.5129539 C16.5440982,11.450542 16.1824947,11.450542 15.828791,11.5129539 L15.828791,9.36891176 L16.8978019,9.36891176 Z M16.8978019,18.5814865 L16.8978019,20.7255287 L15.828791,20.7255287 L15.828791,18.5814865 C16.1824947,18.6438985 16.5440982,18.6438985 16.8978019,18.5814865 Z M22.2302501,15.1886766 C21.9671904,14.5416971 22.1125976,13.7969915 22.5986684,13.3018148 C23.0847393,12.8066381 23.8157505,12.658507 24.4508327,12.9264946 C25.0859149,13.1944823 25.4999995,13.8258133 25.4999995,14.5260989 C25.5003322,14.9853983 25.3213788,15.4259834 25.0025772,15.7507572 C24.6837757,16.075531 24.2512925,16.2578369 23.8004391,16.257498 C23.1130311,16.257498 22.4933097,15.8356561 22.2302501,15.1886766 Z M6.5,14.8201956 C6.49992315,13.8640257 7.26069511,13.0888114 8.19928203,13.0886547 C9.13786894,13.0884981 9.89889014,13.8634585 9.89912075,14.8196284 C9.89945332,15.2789669 9.72051315,15.7195956 9.40172365,16.044437 C9.08293414,16.3692783 8.65045212,16.5516789 8.19956035,16.551453 C7.26097342,16.5514529 6.50007685,15.7763655 6.5,14.8201956 Z M21.5834941,15.3645725 L19.4788788,15.3628709 C19.540143,15.002541 19.540143,14.6341634 19.4788788,14.2738336 L21.5834941,14.2738336 L21.5834941,15.3645725 Z M12.9395383,15.3645725 L10.8349229,15.3645725 L10.8349229,14.2755352 L12.9395383,14.2755352 C12.878274,14.635865 12.878274,15.0042426 12.9395383,15.3645725 Z M16.2296701,17.4022633 C14.8989673,17.4022633 13.8202196,16.3033069 13.8202196,14.9476754 C13.8202196,13.5920439 14.8989673,12.4930875 16.2296701,12.4930875 C17.5601819,12.493557 18.6386596,13.5922385 18.6391206,14.9476754 C18.6391206,16.3033069 17.5603728,17.4022633 16.2296701,17.4022633 Z"/>
    <filter id="blz-d" width="118.4%" height="117.5%" x="-9.2%" y="-6.2%" filterUnits="objectBoundingBox">
      <feOffset dy=".5" in="SourceAlpha" result="shadowOffsetOuter1"/>
      <feGaussianBlur in="shadowOffsetOuter1" result="shadowBlurOuter1" stdDeviation=".5"/>
      <feColorMatrix in="shadowBlurOuter1" values="0 0 0 0 0   0 0 0 0 0   0 0 0 0 0  0 0 0 0.204257246 0"/>
    </filter>
  </defs>
  <g fill="none" fill-rule="evenodd">
    <use fill="#000" filter="url(#blz-a)" xlink:href="#blz-b"/>
    <use fill="#18578C" xlink:href="#blz-b"/>
    <use fill="url(#blz-c)" style="mix-blend-mode:soft-light" xlink:href="#blz-b"/>
    <circle cx="16" cy="15" r="14.5" stroke="#000" stroke-opacity=".097"/>
    <g fill-rule="nonzero">
      <use fill="#000" filter="url(#blz-d)" xlink:href="#blz-e"/>
      <use fill="#FFF" fill-rule="evenodd" xlink:href="#blz-e"/>
    </g>
  </g>
</svg>
